svgs/sharp-light/sandwich.svg

<svg xmlns="http://www.w3.org/2000/svg" viewBox="0 0 512 512"><!--! Font Awesome Pro 6.6.0 by @fontawesome - https://fontawesome.com License - https://fontawesome.com/license (Commercial License) Copyright 2024 Fonticons, Inc. --><path d="M480 96l0 64L32 160l0-64 448 0zM32 64L0 64 0 96l0 64 0 32 32 0 448 0 32 0 0-32 0-64 0-32-32 0L32 64zM320 352l-64-32L32 320 0 320l0 32 0 64 0 32 32 0 448 0 32 0 0-32 0-64 0-32-32 0-96 0-64 32zm71.6 0l88.4 0 0 64L32 416l0-64 216.4 0 57.2 28.6 14.3 7.2 14.3-7.2L391.6 352zM131.9 224.5l-3.7-.9-3.7 .9-104 24L4.8 252 12 283.2l15.6-3.6 100.3-23.1 124.3 31.1 3.9 1 3.9-1 124.3-31.1 100.3 23.1 15.6 3.6 7.2-31.2-15.6-3.6-104-24-3.7-.9-3.7 .9L256 255.5l-124.1-31z"/></svg>

<svg xmlns="http://www.w3.org/2000/svg" viewBox="0 0 512 512"><!--! Font Awesome Pro 6.4.0 by @fontawesome - https://fontawesome.com License - https://fontawesome.com/license (Commercial License) Copyright 2023 Fonticons, Inc. --><path d="M480 96v64H32V96H480zM32 64H0V96v64 32H32 480h32V160 96 64H480 32zM320 352l-64-32H32 0v32 64 32H32 480h32V416 352 320H480 384l-64 32zm71.6 0H480v64H32V352H248.4l57.2 28.6 14.3 7.2 14.3-7.2L391.6 352zM131.9 224.5l-3.7-.9-3.7 .9-104 24L4.8 252 12 283.2l15.6-3.6 100.3-23.1 124.3 31.1 3.9 1 3.9-1 124.3-31.1 100.3 23.1 15.6 3.6 7.2-31.2-15.6-3.6-104-24-3.7-.9-3.7 .9L256 255.5l-124.1-31z"/></svg>
